X:1
T:Zorinsky, 86.86.86.86.86.86
T:Asa Hull, 1884
T:Zorinsky, 86.86.86.86.86.86
T:Public Domain
C:Asa Hull, 1884
Z:Public Domain
%%score ( 1 2 ) ( 3 4 )
L:1/8
M:4/4
K:D
V:1 treble 
V:2 treble 
V:3 bass 
V:4 bass 
V:1
 A2 F>E D3 [CE] | [DF]2 [GB]2 [FA]2 [DF]2 | [EG]3 [EG] [DF]2 [DF]2 | [CE]6 z2 | A2 F>E D3 [CE] | %5
 [DF]2 [GB]2 [FA]2 [Fd]2 | [Fd]3 [Fd] [Fd]2 EG | [Fd]6 z2 | [Ge]2 [Ac]>[GB] [FA]3 [EG] | %9
 (F>^E) ([DF]>[=EG]) [FA]2 [Fd]2 | [Ge]3 [Fd] [Ec]2 [GB]2 | [FA]6 z2 | [GB]2 [GB]>[GB] [DA]3 [DA] | %13
 [CG]2 [CG]2 [DF]2 [DF]2 | [CE]3 [CA] [Ec]2 [DB]2 | [CA]6 z2 | A2 F>E D3 [CE] | %17
 [DF]2 [GB]2 [FA]2 [DF]2 | [EG]3 [EG] [DF]2 [DF]2 | [CE]6 z2 | A2 F>E D3 [CE] | %21
 [DF]2 [GB]2 [FA]2 [Fd]2 | [Fd]3 [Fd] [Fd]2 EG | [Fd]8 |] %24
V:2
 A2 F>E D3 x | x8 | x8 | x8 | A2 F>E D3 x | x8 | x6 c2 | x8 | x8 | D2 x6 | x8 | x8 | x8 | x8 | x8 | %15
 x8 | A2 F>E D3 x | x8 | x8 | x8 | A2 F>E D3 x | x8 | x6 c2 | x8 |] %24
V:3
 A,2 F,>E, D,3 [A,,A,] | [D,A,]2 [D,D]2 [D,D]2 [D,A,]2 | [C,A,]3 [C,A,] [D,A,]2 [D,A,]2 | %3
 [A,,A,]6 z2 | A,2 F,>E, D,3 [A,,A,] | [D,A,]2 [D,D]2 [D,D]2 [D,A,]2 | %6
 [D,A,]3 [F,A,] A,2 [A,,A,]2 | [D,A,]6 z2 | [A,,A,]2 [A,,A,]>[A,,A,] [A,,A,]3 [C,A,] | %9
 [D,A,]2 [D,A,]2 [D,D]2 [D,A,]2 | [A,,A,]3 [A,,A,] [A,,A,]2 [A,,C]2 | [D,D]6 z2 | %12
 [G,D]2 [G,D]>[G,D] [F,D]3 [F,A,] | [E,A,]2 [E,A,]2 [D,A,]2 [D,A,]2 | %14
 [E,A,]3 [E,A,] [E,A,]2 [E,^G,]2 | [A,,A,]6 z2 | A,2 F,>E, D,3 [A,,A,] | %17
 [D,A,]2 [D,D]2 [D,D]2 [D,A,]2 | [C,A,]3 [C,A,] [D,A,]2 [D,A,]2 | [A,,A,]6 z2 | %20
 A,2 F,>E, D,3 [A,,A,] | [D,A,]2 [D,D]2 [D,D]2 [D,A,]2 | [D,A,]3 [F,A,] A,2 [A,,A,]2 | [D,A,]8 |] %24
V:4
 A,2 F,>E, D,3 x | x8 | x8 | x8 | A,2 F,>E, D,3 x | x8 | x4 A,2 x2 | x8 | x8 | x8 | x8 | x8 | x8 | %13
 x8 | x8 | x8 | A,2 F,>E, D,3 x | x8 | x8 | x8 | A,2 F,>E, D,3 x | x8 | x4 A,2 x2 | x8 |] %24

